public/LogoDark.svg

<svg width="68" height="12" viewBox="0 0 68 12" fill="none" xmlns="http://www.w3.org/2000/svg">
<path fill-rule="evenodd" clip-rule="evenodd" d="M63.7588 3.32031C64.2707 3.32035 64.7587 3.42387 65.2227 3.63184C65.6946 3.83183 66.107 4.11169 66.459 4.47168C66.811 4.83166 67.0824 5.25245 67.2744 5.73242C67.4743 6.20432 67.5742 6.69612 67.5742 7.20801C67.5742 7.72001 67.4744 8.21629 67.2744 8.69629C67.0825 9.17602 66.8108 9.59993 66.459 9.96777C66.107 10.3278 65.6947 10.6123 65.2227 10.8203C64.7587 11.0203 64.2707 11.1201 63.7588 11.1201H62.6787C62.1587 11.1201 61.6624 11.0203 61.1904 10.8203C60.7185 10.6123 60.3023 10.3324 59.9424 9.98047C59.5904 9.62054 59.3142 9.20431 59.1143 8.73242C58.9143 8.25255 58.8145 7.75227 58.8145 7.23242C58.8145 6.7125 58.9143 6.21608 59.1143 5.74414C59.3142 5.26426 59.5905 4.84432 59.9424 4.48438C60.3024 4.11638 60.7184 3.83184 61.1904 3.63184C61.6704 3.42384 62.1667 3.32031 62.6787 3.32031H63.7588ZM62.9189 5.21582C62.599 5.21582 62.2827 5.30821 61.9707 5.49219C61.6587 5.66819 61.419 5.91633 61.251 6.23633C61.083 6.55631 60.998 6.88003 60.998 7.20801C60.998 7.53601 61.083 7.86439 61.251 8.19238C61.419 8.51215 61.6589 8.76434 61.9707 8.94824C62.2826 9.13215 62.599 9.22363 62.9189 9.22363H63.627C63.8108 9.22358 64.007 9.18815 64.2148 9.11621C64.4308 9.0442 64.6305 8.9238 64.8145 8.75586C65.0064 8.57986 65.1706 8.35969 65.3066 8.0957C65.4425 7.82378 65.5107 7.52789 65.5107 7.20801C65.5107 6.68005 65.3222 6.21638 64.9463 5.81641C64.5784 5.41652 64.1388 5.21593 63.627 5.21582H62.9189Z" fill="black"/>
<path d="M28.1885 5.07227L24.1445 9.21191H27.2168V7.91602L29.2207 7.68848V11H21.1211L21.3486 9.41602L25.333 5.28809H22.0566L21.793 3.5H28.4053L28.1885 5.07227Z" fill="black"/>
<path d="M37.9736 5.2998H33.0537V6.44043H37.0498V8.0957H33.0537V9.13965H37.9736L38.2256 11H32.1533C31.8975 10.9999 31.6575 10.9243 31.4336 10.7725C31.2176 10.6205 31.0655 10.4441 30.9775 10.2441C30.8895 10.0361 30.8457 9.84769 30.8457 9.67969V3.5H38.2256L37.9736 5.2998Z" fill="black"/>
<path d="M45.7178 6.66797V3.5H47.8301V11H45.8262L45.7061 9.27246L41.7822 5.92383V11H39.6699V3.5H41.9854L45.7178 6.66797Z" fill="black"/>
<path fill-rule="evenodd" clip-rule="evenodd" d="M54.1572 3.5C54.6532 3.5 55.1299 3.5998 55.5859 3.7998C56.0417 3.99174 56.4376 4.25973 56.7734 4.60352C57.1174 4.94752 57.3814 5.35241 57.5654 5.81641C57.7573 6.27232 57.8535 6.74825 57.8535 7.24414C57.8535 7.73995 57.7536 8.21976 57.5537 8.68359C57.3617 9.13959 57.0893 9.54448 56.7373 9.89648C56.3934 10.2403 55.9929 10.512 55.5371 10.7119C55.0812 10.9038 54.6052 11 54.1094 11H49.5137V3.5H54.1572ZM51.6973 9.12793H53.9414C54.4854 9.12793 54.922 8.94789 55.25 8.58789C55.5778 8.22004 55.7411 7.76811 55.7412 7.23242C55.7412 7.04842 55.7132 6.84784 55.6572 6.63184C55.6012 6.41595 55.4892 6.20026 55.3213 5.98438C55.1613 5.76038 54.9533 5.59247 54.6973 5.48047C54.4493 5.36049 54.1974 5.2998 53.9414 5.2998H51.6973V9.12793Z" fill="black"/>
<path d="M14 5C14.5523 5 15 5.44772 15 6V7C15 7.55228 14.5523 8 14 8H6C5.44772 8 5 7.55228 5 7V6C5 5.44772 5.44772 5 6 5H14Z" fill="black"/>
<path d="M19 0C19.5523 1.28851e-07 20 0.447715 20 1V2C20 2.55228 19.5523 3 19 3H1C0.447715 3 1.61065e-08 2.55228 0 2V1C0 0.447715 0.447715 8.05319e-09 1 0H19Z" fill="black"/>
</svg>

<svg viewBox="0 0 68 12" xmlns="http://www.w3.org/2000/svg" fill="none"><path d="M63.759 3.32q.768 0 1.464.312a3.77 3.77 0 0 1 2.051 2.1q.3.708.3 1.476t-.3 1.488q-.287.72-.815 1.272-.528.54-1.236.852-.696.3-1.464.3h-1.08q-.78 0-1.489-.3a4.2 4.2 0 0 1-1.248-.84 4 4 0 0 1-.828-1.248q-.3-.72-.3-1.5t.3-1.488q.3-.72.828-1.26a3.8 3.8 0 0 1 1.248-.852q.72-.312 1.489-.312zm-35.57 1.752-4.044 4.14h3.072V7.916l2.004-.228V11h-8.1l.228-1.584 3.984-4.128h-3.276L21.793 3.5h6.612zm9.785.228h-4.92v1.14h3.996v1.656h-3.996V9.14h4.92l.252 1.86h-6.073a1.26 1.26 0 0 1-.72-.227 1.3 1.3 0 0 1-.456-.529 1.5 1.5 0 0 1-.131-.564V3.5h7.38zm7.744 1.368V3.5h2.112V11h-2.004l-.12-1.728-3.924-3.348V11H39.67V3.5h2.315zm8.44-3.168q.743 0 1.428.3.684.288 1.187.804.516.516.792 1.212a3.64 3.64 0 0 1-.011 2.868 3.8 3.8 0 0 1-.817 1.212 3.9 3.9 0 0 1-1.2.816A3.6 3.6 0 0 1 54.11 11h-4.595V3.5zm8.76 1.716q-.479 0-.947.276a1.8 1.8 0 0 0-.72.744q-.252.48-.253.972 0 .492.253.984.252.48.72.756t.948.276h.708q.276 0 .588-.108a1.7 1.7 0 0 0 .6-.36q.287-.264.492-.66.203-.408.204-.888a1.97 1.97 0 0 0-.565-1.392q-.552-.6-1.319-.6zm-11.22 3.912h2.243q.816 0 1.309-.54.492-.552.491-1.356 0-.276-.084-.6a1.8 1.8 0 0 0-.336-.648 1.5 1.5 0 0 0-.624-.504 1.7 1.7 0 0 0-.756-.18h-2.244zM14 5a1 1 0 0 1 1 1v1a1 1 0 0 1-1 1H6a1 1 0 0 1-1-1V6a1 1 0 0 1 1-1zm5-5a1 1 0 0 1 1 1v1a1 1 0 0 1-1 1H1a1 1 0 0 1-1-1V1a1 1 0 0 1 1-1z" fill="#fff"/></svg>
